X:1
T:The Jam on Gerry's Rock
M:4/4
L:1/4
K:C
 G,| C3/2 D/2 E G| F- A G C| B, D C B,| C3| G| A3/2 G/2 A B| c- c c A|\
 G3/2 F/2 E A| G3| G| A3/2 G/2 A B| c/2 c c3/2B/2-A/2| G3/2 F/2 E A|\
 G3| G,| C3/2 D/2 E G| F/2 A3/2 GC/2-C/2| B, D C B,| C3||
